X: 1
T:The Weaver  "CYMRU"
M:C
L:1/8
Q:80
C:Donald MacLeod
S:Jig
K:HP
M:9/8 |
{g}fB{G}B{gcd}c2B{g}c{GdG}e2|
{g}fB{G}B{gcd}c2B{g}c{GdGe}A2|1  !
{g}fB{G}B{gcd}c2B{g}c{GdG}e2:|2
{g}A{d}A{e}A{gcd}c2B{g}c{GdG}e2|
{g}faf{g}ec{G}A{gcd}cB{G}B:| |:  !
| {g}fa{g}a{fg}f2e{g}c{GdG}e2|
{g}fae{gfg}f2e{g}c{GdGe}A2|1
{g}fa{g}a{fg}f2e{g}c{GdG}e2:|2  !
{g}A{d}A{e}A{gcd}c2B{g}c{GdG}e2|
{g}faf{g}ec{G}A{gcd}cB{G}B:| |:
| {g}Bf{e}f{gfg}f2e{g}fB{G}B|  !
{g}cf{e}f{gfg}f2e{g}c{GdGe}A2|
{g}Bf{e}f{gfg}f2e{g}fB{G}B|
{g}ce{A}e{gfg}f2e{gcd}cB{G}B:| [|  !
| {g}ca{g}acae{g}fB{G}B|
{g}ca{g}aeae{g}c{GdGe}A2|
{g}ca{g}acae{g}fB{G}B|  !
{g}ce{A}e{gfg}f2e{gcd}cB{G}B| |
{g}ca{g}acae{g}fB{G}B|
{g}ca{g}aeae{g}c{GdGe}A2|  !
{g}A{d}ce{gef}ece{g}fga|
A{d}A{e}A{gfg}f2e{gcd}cB{G}B|]
